!!!!SEGMENT: Ric3004-Sur_tous_regretz.krn
!!!id: Ric3004
!!!AGN: Chanson
!!!SCT: Elzinga (1999)
!!!voices: 4
!!!COM: Jean Richafort
!!!OTL: Sur tous regretz
**kern	**kern	**kern	**kern
*part4	*part3	*part2	*part1
*staff4	*staff3	*staff2	*staff1
*I"Bassus	*I"Tenor	*I"Altus	*I"Superius
*I'B	*I'T	*I'A	*I'S
*clefF4	*clefGv2	*clefGv2	*clefG2
*k[b-]	*k[b-]	*k[b-]	*k[b-]
*d:	*d:	*d:	*d:
*M2/1	*M2/1	*M2/1	*M2/1
*met(C|)	*met(C|)	*met(C|)	*met(C|)
=1	=1	=1	=1
1D	0r	1r	0r
2.D	.	1d	.
4E	.	.	.
=2	=2	=2	=2
2F	0r	1d	0r
2G	.	.	.
2A	.	2c	.
[2B-y	.	[2d	.
=3	=3	=3	=3
2B-]	0r	2d]	0d
4A	.	4c	.
4G	.	4B-y	.
2F	.	2A	.
2G	.	[2B-y	.
=4	=4	=4	=4
0D	0d	2B-]	1f
.	.	4A	.
.	.	4G	.
.	.	1A	2.f
.	.	.	8eL
.	.	.	8fJ
=5	=5	=5	=5
2r	2.B-y	2G	0g
2G	.	2d	.
.	4c	.	.
2G	2d	2B-y	.
2C	[2e	2c	.
=6	=6	=6	=6
2.G	4e]	1d	2r
.	4d	.	.
.	2.d	.	2b-y
4G	.	.	.
2F	.	2r	2a
.	4c	.	.
2E	4c	2G	2g
.	4B-y	.	.
=7	=7	=7	=7
2.D	0d	2A	0f
.	.	2A	.
4C	.	.	.
2BB-y	.	2.B-y	.
[2B-y	.	.	.
.	.	4A	.
=8	=8	=8	=8
2B-]	1r	4G	2r
.	.	4F	.
2A	.	1f	2f
1G	1B-y	.	2g
.	.	2e	2b-y
=9	=9	=9	=9
0F	2.c	0f	2a
.	.	.	2.cc
.	4B-y	.	.
.	2A	.	.
.	.	.	4b-y
.	[2d	.	4a
.	.	.	4g
=10	=10	=10	=10
2r	4d]	1d	4f
.	4c	.	4e
2BB-y	4B-y	.	4f
.	4A	.	4d
2C	1G	2c	4e
.	.	.	4f
2E-X	.	2B-y	[2g
=11	=11	=11	=11
1D	2A	1d	2g]
.	2.B-y	.	2f
2BB-y	.	1r	[1g
.	4A	.	.
[2C	4G	.	.
.	4F	.	.
=12	=12	=12	=12
4C]	4E	2r	1g]
4BB-y	4D	.	.
2GG	1G	2B-y	.
1AA	.	4c	1r
.	.	4B-y	.
.	2F#i	4c	.
.	.	4d	.
=13	=13	=13	=13
1GG	1G	2e	1r
.	.	2.d	.
1r	1D	.	2r
.	.	4c	.
.	.	4B-y	2f
.	.	4A	.
=14	=14	=14	=14
0r	0r	2G	2g
.	.	1d	1b-y
.	.	4c	4a
.	.	4B-y	4g
=15	=15	=15	=15
0r	2r	2c	4a
.	.	.	4g
.	2F	2A	4f
.	.	.	4e
.	2G	2.B-y	2.d
.	[2B-y	.	.
.	.	4c	4e
=16	=16	=16	=16
0r	2B-]	4d	2f
.	.	4G	.
.	4A	1d	2g
.	4G	.	.
.	1A	.	2e
.	.	2c#i	2e
=17	=17	=17	=17
2r	1D	1d	[0d
2F	.	.	.
2G	2r	1r	.
[2B-y	2G	.	.
=18	=18	=18	=18
2B-]	2G	2r	1d]
4A	2G	2d	.
4G	.	.	.
1A	2.F	2f	2r
.	.	2f	2c
.	8EL	.	.
.	8DJ	.	.
=19	=19	=19	=19
1D	4F	2.f	2d
.	4G	.	.
.	2A	.	1f
.	.	4e	.
2BB-y	2D	2d	.
2C	2E	2c	[2e
=20	=20	=20	=20
2D	2F	2A	2e]
2GG	2G	2B-y	1d
1AA	1E	[1A	.
.	.	.	2c#i
=21	=21	=21	=21
2r	0D	1A]	[0d
2D	.	.	.
2BB-y	.	2r	.
2GG	.	[2G	.
=22	=22	=22	=22
2.D	1r	2G]	0d]
.	.	2F	.
4C	.	.	.
2BB-y	2r	1B-y	.
2GG	[2G	.	.
=23	=23	=23	=23
1D	2G]	1A	2r
.	2F	.	2d
1r	2.B-y	2r	4d
.	.	.	4e
.	.	2d	4f
.	8AL	.	4g
.	8B-yJ	.	.
=24	=24	=24	=24
2r	2A	2c	2a
1G	2G	2.d	2.b-y
.	[1d	.	.
.	.	4e	4a
2F	.	[2f	[2a
=25	=25	=25	=25
1B-y	2d]	2f]	4a]
.	.	.	4f
.	4c	4e	2g
.	4B-y	4d	.
1A	1c	1e	2.a
.	.	.	4g
=26	=26	=26	=26
1D	2r	2d	4f
.	.	.	4e
.	2A	2d	1f
2D	2d	2f	.
2D	2d	2f	2b-y
=27	=27	=27	=27
2F	2c	2f	2a
2G	2B-y	2e	2g
1D	1A	4d	2g
.	.	4c	.
.	.	4B-y	2f#i
.	.	4A	.
=28	=28	=28	=28
2r	1G	0B-y	1g
2.G	.	.	.
.	2r	.	1r
4A	.	.	.
[2B-y	[2G	.	.
=29	=29	=29	=29
4B-]	4G]	2r	1b-y
4A	4A	.	.
2G	2B-y	2d	.
1F	2c	2.f	4a
.	.	.	4b-y
.	[2F	.	4cc
.	.	4e	4a
=30	=30	=30	=30
1BB-y	2F]	4f	4b-y
.	.	4e	4a
.	2G	1d	4g
.	.	.	4f
1r	1A	.	4e
.	.	.	4d
.	.	2c#i	2e
=31	=31	=31	=31
2r	2D	1d	0d
2D	2.F	.	.
2D	.	1A	.
.	4E	.	.
2D	4F	.	.
.	4D	.	.
=32	=32	=32	=32
2C	0E	2r	1r
2AA	.	2c	.
2.C	.	2c	2r
.	.	2c	2g
8BB-yL	.	.	.
8AAJ	.	.	.
=33	=33	=33	=33
2GG	2r	2B-y	2.g
2.C	2G	2c	.
.	.	.	4f
.	2G	2G	2e
4AA	.	.	.
4BB-y	2G	[2B-y	2d
4C	.	.	.
=34	=34	=34	=34
2.D	2F	4B-]	2.f
.	.	4A	.
.	2D	1A	.
8CL	.	.	8eL
8BB-yJ	.	.	8dJ
4AA	2F	.	4c
4BB-y	.	.	4d
[2C	4E	4G	4e
.	4D	4F	4f
=35	=35	=35	=35
2C]	2C	1G	2e
2BB-y	2D	.	1d
1AA	1E	1A	.
.	.	.	2c#i
=36	=36	=36	=36
2r	1D	1F	1d
2.D	.	.	.
.	[1d	2r	1r
4E	.	.	.
4F	.	2f	.
4D	.	.	.
=37	=37	=37	=37
1G	2d]	2f	1b-y
.	2B-y	2e	.
1F	2c	2.f	4a
.	.	.	4b-y
.	[2F	.	4cc
.	.	4e	4a
=38	=38	=38	=38
1BB-y	2F]	4f	4b-y
.	.	4e	4a
.	2G	1d	4g
.	.	.	4f
1r	1A	.	4e
.	.	.	4d
.	.	2c#i	2e
=39	=39	=39	=39
2r	2D	1d	0d
2D	2.F	.	.
2D	.	1A	.
.	4E	.	.
2D	4F	.	.
.	4D	.	.
=40	=40	=40	=40
2C	0E	2r	1r
2AA	.	2c	.
2.C	.	2c	2r
.	.	2c	2g
8BB-yL	.	.	.
8AAJ	.	.	.
=41	=41	=41	=41
2GG	2r	2B-y	2.g
2.C	2G	2c	.
.	.	.	4f
.	2G	2G	2e
4AA	.	.	.
4BB-y	2G	[2B-y	2d
4C	.	.	.
=42	=42	=42	=42
2.D	2F	4B-]	2.f
.	.	4A	.
.	2D	1A	.
8CL	.	.	8eL
8BB-yJ	.	.	8dJ
4AA	2F	.	4c
4BB-y	.	.	4d
[2C	4E	4G	4e
.	4D	4F	4f
=43	=43	=43	=43
2C]	2C	1G	2e
2BB-y	2D	.	1d
1AA	1E	1A	.
.	.	.	2c#i
=44	=44	=44	=44
2r	1D	0A	0d
2D	.	.	.
2.D	2r	.	.
.	2D	.	.
4E	.	.	.
=45	=45	=45	=45
2F	2.D	1r	0r
2G	.	.	.
.	4E	.	.
2A	2F	2r	.
[2B-y	[2G	2d	.
=46	=46	=46	=46
2B-]	2G]	2B-y	[0dl
4A	4F	2.d	.
4G	4E	.	.
2F	2D	.	.
.	.	4c	.
2G	[2d	2B-y	.
=47	=47	=47	=47
0D	4d]	2A	0d_
.	4c	.	.
.	2B-y	1G	.
.	1A	.	.
.	.	2F#i	.
=48	=48	=48	=48
2r	1G	2G	0d_
2GG	.	2d	.
2GG	2r	2B-y	.
2GG	2D	[2d	.
=49	=49	=49	=49
1.BB-y	1D	4d]	0d_
.	.	4c	.
.	.	4B-y	.
.	.	4A	.
.	1G	1B-y	.
4AA	.	.	.
4GG	.	.	.
=50	=50	=50	=50
00Dl	00Fl	00Al	00d]
==	==	==	==
*-	*-	*-	*-
!!!system-decoration: [*]
!!!RDF**kern: i = editorial accidental
!!!RDF**kern: l = terminal long
!!!ENC: Benjamin Ory
!!!END: 2022/3/20
!!!EED: Benjamin Ory
!!!EEV: 2022/03/20
!!!YEC: Copyright 2022 Benjamin Ory, All Rights Reserved
!!!ONB: Translated from MusicXML on 2022/03/20
